X:1
T:Title
%%score 1 { 2 | 3 }
L:1/8
M:4/4
K:F
V:1 treble nm="Grand Piano, Unnamed-000"
V:2 treble nm="Choir Pad, Unnamed-001"
V:3 bass 
V:1
 [FA]2 [FA]2- [FA][FA] [FB]2 | [CA]2 [DG]2 [EA]2 F2 | [FA]2 [FA]2- [FA]A [Ac]2 | %3
w: By~Thoro~Harris * * * *|||
 [_A=B]2 =A2 [EB]2 [Ec]2 | [Gc]2 [Fc]2- [Fc][Ec] [Ff]2 | [EA]2 [FA]2- [FA][GA] [Fd]2 | %6
w: |||
 [FG]2 [EG]2- [EG][EG] [Fc]2 | [DF]2 [FA]2 [EG]2 F2- | F6 z2 |] %9
w: |||
V:2
 C2 C2- C^C D2 | C2 B,2 C2 A,2 | C2 D2- D_E =E2 | D2 C2 D2 C2 | E2 C2- CB, A,2 | ^C2 D2- DC A,2 | %6
 D2 C2- CC C2 | _A,2 =A,2 B,2 A,2- | A,6 z2 |] %9
V:3
 F,2 F,2- F,F, F,2 | F,2 F,2 F,2 F,2 | F,2 F,2- F,F, E,2 | E,2 E,2 E,2 A,2 | B,2 A,2- A,G, F,2 | %5
 G,2 F,2- F,E, D,2 | =B,,2 C,2- C,_B,, A,,2 | =B,,2 C,2 C,2 F,2- | F,6 z2 |] %9

